storage/app/icons/phosphoricons/bold/command-bold.svg

<svg xmlns="http://www.w3.org/2000/svg" fill="currentColor" viewBox="0 0 256 256"><path d="M180 140h-16v-24h16a40 40 0 1 0-40-40v16h-24V76a40 40 0 1 0-40 40h16v24H76a40 40 0 1 0 40 40v-16h24v16a40 40 0 1 0 40-40m-16-64a16 16 0 1 1 16 16h-16ZM60 76a16 16 0 0 1 32 0v16H76a16 16 0 0 1-16-16m32 104a16 16 0 1 1-16-16h16Zm24-64h24v24h-24Zm64 80a16 16 0 0 1-16-16v-16h16a16 16 0 0 1 0 32"/></svg>

<svg xmlns="http://www.w3.org/2000/svg" viewBox="0 0 256 256" fill="currentColor"><path d="M180,140H164V116h16a40,40,0,1,0-40-40V92H116V76a40,40,0,1,0-40,40H92v24H76a40,40,0,1,0,40,40V164h24v16a40,40,0,1,0,40-40ZM164,76a16,16,0,1,1,16,16H164ZM60,76a16,16,0,0,1,32,0V92H76A16,16,0,0,1,60,76ZM92,180a16,16,0,1,1-16-16H92Zm24-64h24v24H116Zm64,80a16,16,0,0,1-16-16V164h16a16,16,0,0,1,0,32Z"/></svg>
